!!!!SEGMENT: pl-wn--mus-iii-110-038-cim--001-002_brzowska-jadwiga--le-diane-contredanses-composees-pour-le-piano-fig-2.krn
!!!cenid: 18xx:4436
!!!COM: Brzowska, Jadwiga
!!!COM-rismID: pe50052590
!!!CDT: 1830-1886
!!!CNT: Polish
!!!GTL: Le Diane: Contredanses composées pour le piano
!!!OTL: Fig. 2
!!!OMV: 002
!!!PDT: 1848
!!!AGN: Secular; Contradance
!!!YEC: Copyright 2022 Narodowy Instytut Fryderyka Chopina (https://polishscores.org)
!!!YEM: License CC-BY-4.0 (https://creativecommons.org/licenses/by/4.0)
!!!SMS-siglum: PL-Wn
!!!SMS-shelfmark: Mus.III.110.038 Cim.
!!!SMS-shelfwork: 001-002 G
!!!SMS-variant:
!!!SMS-altvar:
!!!NIFC-rismSourceID:
!!!NIFC-rismChildID:
!!!NIFC-islandoraID: none
!!!URL-pdf-islandora:
!!!URL-scan: https://polona.pl/item-view/59c5dde7-d015-4f2b-b38f-cb13e1316317?page=3
!!!IIIF:
!!!ONB-nifc: UWAGA: Fig. 2 na str. 3
!!!AIN: 1 piano
!!!key: B-
**kern	**kern	**dynam
*part1	*part1	*part1
*staff2	*staff1	*staff1/2
*>[A,B,C,B,C,A,B]	*>[A,B,C,B,C,A,B]	*
*>A	*>A	*
*I"FIG:2	*I"FIG:2	*
*mI"Pianoforte	*mI"Pianoforte	*
*I'	*I'	*
*mI'pf	*mI'pf	*
*Ipiano	*Ipiano	*
*ICklav	*ICklav	*
*clefF4	*clefG2	*
*k[b-e-]	*k[b-e-]	*
*B-:	*B-:	*
*M2/4	*M2/4	*
=1	=1	=1
8B-L 8BB-\	16bb-\LL	.
.	16aa\	.
8d 8B- 8F\	16ccc\	.
.	16bb-\JJ	.
8d 8B- 8F\	16ddd\LL	.
.	16bb-\	.
8dJ 8B- 8F\	16ff\	.
.	16dd\JJ	.
=2	=2	=2
8B-L 8BB-\	16bb-\LL	.
.	16aa\	.
8d 8B- 8F\	16ccc\	.
.	16bb-\JJ	.
8d 8B- 8F\	16ddd\LL	.
.	16bb-\	.
8dJ 8B- 8F\	16ff\	.
.	16dd\JJ	.
=3	=3	=3
!	!LO:MO:mod=!null:null	!
!	!LO:TX:a:i:t=crescen_do:problem=dynamics with extension lines	!LO:HP:a:t=crescen do:ext=c
8B-L 8BB-\	16ff\LL	<
.	16een\	.
!LO:SIC:v:s=8e 8c# 8B- 8G	!	!
8e- 8c#X 8B- 8G\	16gg\	.
.	16ff#X\JJ	.
!LO:SIC:v:s=8e 8c# 8B- 8G	!	!
8e- 8c# 8B- 8G\	16aa\LL	.
.	16gg\	.
!LO:SIC:v:s=8eJ 8c# 8B- 8G	!	!
8e-J 8c# 8B- 8G\	16bb-\	[
.	16gg\JJ	.
!!LO:LB:g=original
=4	=4	=4
8B-L 8BB-\	4een\	.
8d 8B- 8F\	.	.
8d 8B- 8F\	8ff\	.
8dJ 8B- 8F\	8r	.
=5	=5	=5
8B-L 8BB-\	16bb-\LL	.
.	16aa\	.
8d 8B- 8F\	16ccc\	.
.	16bb-\JJ	.
8d 8B- 8F\	16ddd\LL	.
.	16bb-\	.
8dJ 8B- 8F\	16ff\	.
.	16dd\JJ	.
=6	=6	=6
8B-L 8BB-\	16bb-\LL	.
.	16aa\	.
8d 8B- 8F\	16ccc\	.
.	16bb-\JJ	.
8d 8B- 8F\	16ddd\LL	.
.	16bb-\	.
8dJ 8B- 8F\	16ff\	.
.	16dd\JJ	.
=7	=7	=7
8cL 8C\	16een\LL	.
!	!LO:MO:mod=!null:null	!
!	!LO:TX:a:i:t=cres_cen_do:problem=dynamics with extension lines	!LO:HP:a=t=cres cen do:ext=c
.	16ccc\	<
8en 8c 8B- 8G\	16bb-\	.
.	16gg\JJ	.
8e 8c 8B- 8G\	16ee\LL	.
.	16cc\	.
8eJ 8c 8B- 8G\	16b-\	.
.	16g\JJ	.
!!LO:LB:g=original
=8	=8	=8
4F 4FF\	8f\L	.
.	8ff 8ee- 8a\	[
4r	8ff 8ee- 8a\	.
.	8ffJ 8ee- 8a\	.
=9!|:	=9!|:	=9!|:
*>B	*>B	*
8FL 8FF\	8f\L	.
8e- 8c 8F\	16ffL 16ee- 16a\	.
.	16ffJJ 16ee- 16a\	.
8e- 8c 8F\	8g-X/L	.
8e-J 8c 8F\	8f/J	.
=10	=10	=10
8B-L 8BB-\	8b-\L	.
8d 8B- 8F\	8cc\	.
8d 8B- 8F\	8dd\	.
8dJ 8B- 8F\	8b-\J	.
=11	=11	=11
8GL 8GG\	8g\L	.
8f 8d 8G\	16ggL 16ff 16bn\	.
.	16ggJJ 16ff 16b\	.
8f 8d 8G\	8a-X/L	.
8fJ 8d 8G\	8g/J	.
=12	=12	=12
8cL 8C\	8cc\L	.
8e- 8c 8G\	8dd\	.
8e- 8c 8G\	8ee-\	.
8e-J 8c 8G\	8cc\J	.
!!LO:LB:g=original
=13	=13	=13
8FL 8FF\	8f\L	.
8e- 8c 8F\	8ffJ 8ee- 8a\	.
8e- 8c 8F\	4fff 4eee- 4aa 4ff^^\	.
8e-J 8c 8F\	.	.
=14	=14	=14
8B-L 8BB-\	8f\L	.
8d 8B- 8F\	8ffJ 8dd 8b-\	.
8d 8B- 8F\	4fff 4ddd 4bb- 4ff^^\	.
8dJ 8B- 8F\	.	.
=15	=15	=15
*	*8va	*
4F 4E- 4C 4FF\	16ggg-X\LL	f
.	16eee-\	.
.	16ccc\	.
.	16aa\JJ	.
8FL 8E- 8C 8FF\	16gggn\LL	.
.	16eee-\	.
8FJ 8E- 8C 8FF\	16aaa 16ccc\	.
.	16aa\JJ	.
=16	=16	=16
[4B- [4F [>4BB-\	[4bbb- [4ddd [>4bb-\	.
8B-] 8F] 8BB-\]	8bbb-] 8ddd] 8bb-\]	.
!	!LO:TX:a:t=loco:mod=	!
8r	8r	.
*	*X8va	*
!	!LO:TX:b:rj:t=Fine:mod=	!
!!LO:TX:a:B:rj:t=:mod=Fine
!!LO:LB:g=original
=18|!	=18|!	=18|!
*>C	*>C	*
!	!	!LO:DY:rj
8FL 8FF\	16f\LL	p
.	16a\	.
8e- 8c 8A 8F\	16cc\	.
.	16ee-\JJ	.
8e- 8c 8A 8F\	16ff\LL	.
.	16aa\	.
8e-J 8c 8A 8F\	16ccc\	.
.	16eee-\JJ	.
=18	=18	=18
8B-L 8BB-\	16ddd\LL	.
.	16fff\	.
8d 8B- 8F\	16ddd\	.
.	16bb-\JJ	.
8d 8B- 8F\	16ff\LL	.
.	16dd\	.
8dJ 8B- 8F\	16b-\	.
.	16g\JJ	.
=19	=19	=19
8FL 8FF\	16f\LL	.
.	16a\	.
8e- 8c 8A 8F\	16cc\	.
.	16ee-\JJ	.
8e- 8c 8A 8F\	16ff\LL	.
.	16aa\	.
8e-J 8c 8A 8F\	16ccc\	.
.	16eee-\JJ	.
=20	=20	=20
8B-L 8BB-\	16ddd\LL	.
.	16fff\	.
8d 8B- 8F\	16ddd\	.
.	16bb-\JJ	.
8d 8B- 8F\	8ff\	.
8dJ 8B- 8F\	8r	.
!!LO:LB:g=original
=21	=21	=21
!	!LO:MO:mod=!null:null	!
!	!LO:TX:a:i:t=crs cen_do:problem=dynamics with extension lines	!LO:HP:a:t=crs cen do:ext=c
8GL 8GG\	16g\LL	<
.	16bn\	.
8f 8d 8Bn 8G\	16dd\	.
.	16gg\JJ	.
!	!LO:SIC:v:s=16bbLL	!
8f 8d 8B 8G\	16bb-\LL	.
.	16ddd\	.
8fJ 8d 8B 8G\	16ggg\	.
.	16fff\JJ	.
=22	=22	=22
8cL 8C\	16fff\LL	.
.	16eee-\	.
8e-J 8c 8G\	16ccc\	.
.	16aa\JJ	.
8FL 8FF\	16eee-\LL	.
.	16ddd\	.
8dJ 8B- 8F\	16bb-\	.
.	16ff\JJ	.
=23	=23	=23
8FL 8FF\	16eee-\LL	.
.	16ccc\	[
8e- 8c 8A 8F\	16aa\	.
.	16ff\JJ	.
8e- 8c 8A 8F\	16ee-\LL	.
.	16cc\	.
8e-J 8c 8A 8F\	16a\	.
.	16f\JJ	.
=24	=24	=24
4d 4B-\	8b-\L	.
.	16gg\L	.
.	16ff\JJ	.
4r	16gg\LL	.
.	16ff\	.
.	16gg\	.
.	16ff\JJ	.
!	!LO:TX:b:i:t=D.C. al Fine.:mod=	!
!!LO:TX:a:B:t=:mod=Da Capo al Fine
==:|!	==:|!	==:|!
*-	*-	*-
!!!system-decoration: {(*)}
!!!RDF**kern: > = above
!!!filter-modern: sic -sq | shed -e "s/LO:HP:(a|b|rj)/LO:hp:$1/L" | shed -k -e "s/LO:N:vis/LO:n:vis:/L" | shed -e "s/:rj/:RJ/L" | shed -e "s/^(\d+[\/\\]right)/$1yy/I;s/^(\d+[\/\\]left)/$1yy/I" | shed -e "s/LO:DY:(a|b|rj)/LO:dy:$1/L" | shed -e "s/-//B" | modori -m | tie -s | autostem -r | humtr -p
!!!ENC: Andrzej Gręziak
!!!END: 2023-07-25
!!!EED: Andrzej Kubiczek
!!!EEV: 2023-07-26
!!!ENC-modern: Andrzej Borzym
!!!END-modern: 2023-07-28
